!!!COM: Beethoven
!!!OTL: 32 Variationen fur das pianoforte
!!!Variation: Variation 29 a
**function	**harm	**kern	**kern
*	*	*clefF4	*clefG2
*	*	*k[b-e-a-]	*k[b-e-a-]
*M3/4	*M3/4	*M3/4	*M3/4
*c:	*c:	*c:	*c:
=233	=233	=233	=233
2.T	2.i	24EE-LL	24cccLL
.	.	24CC	24eee-
.	.	24EE-J	24cccJ
.	.	24GGL	24ggL
.	.	24EE-	24ccc
.	.	24GGJJ	24ggJJ
.	.	24CLL	24ee-LL
.	.	24GG	24gg
.	.	24CJ	24ee-J
.	.	24E-L	24ccL
.	.	24C	24ee-
.	.	24E-JJ	24ccJJ
.	.	24GLL	24gLL
.	.	24E-	24cc
.	.	24GJ	24gJ
.	.	24cL	24e-L
.	.	24G	24g
.	.	24cJJ	24e-JJ
=234	=234	=234	=234
2.T	2.V	16BB 16B	24gLL
.	.	.	24d
.	.	16r	.
.	.	.	24gJ
.	.	16GG 16G	24bL
.	.	.	24g
.	.	16r	.
.	.	.	24bJJ
.	.	16DD 16D	24ddLL
.	.	.	24b
.	.	16r	.
.	.	.	24ddJ
.	.	16BBB 16BB	24ggL
.	.	.	24dd
.	.	16r	.
.	.	.	24ggJJ
.	.	8GGG 8GG	24bbLL
.	.	.	24gg
.	.	.	24bbJ
.	.	8r	24dddL
.	.	.	24bb
.	.	.	24dddJJ
=235	=235	=235	=235
2.T	2.-Vb	24DD-LL	24bb-LL
.	.	24BBB-	24ddd-
.	.	24DD-J	24bb-J
.	.	24GG-L	24gg-L
.	.	24DD-	24bb-
.	.	24GG-JJ	24gg-JJ
.	.	24BB-LL	24dd-LL
.	.	24GG-	24gg-
.	.	24BB-J	24dd-J
.	.	24D-L	24b-L
.	.	24BB-	24dd-
.	.	24D-JJ	24b-JJ
.	.	24G-LL	24g-LL
.	.	24D-	24b-
.	.	24G-J	24g-J
.	.	24B-L	24d-L
.	.	24G-	24g-
.	.	24B-JJ	24d-JJ
=236	=236	=236	=236
2.P	2.IV	16AA 16A	24fLL
.	.	.	24c
.	.	16r	.
.	.	.	24fJ
.	.	16FF 16F	24aL
.	.	.	24f
.	.	16r	.
.	.	.	24aJJ
.	.	16CC 16C	24ccLL
.	.	.	24a
.	.	16r	.
.	.	.	24ccJ
.	.	16AAA 16AA	24ffL
.	.	.	24cc
.	.	16r	.
.	.	.	24ffJJ
.	.	8FFF 8FF	24aaLL
.	.	.	24ff
.	.	.	24aaJ
.	.	8r	24cccL
.	.	.	24aa
.	.	.	24cccJJ
=237	=237	=237	=237
2.P	2.Gn	24E-LL	24ccLL
.	.	24A-	24f#
.	.	24E-J	24ccJ
.	.	24CL	24ee-L
.	.	24E-	24cc
.	.	24CJJ	24ee-JJ
.	.	24AA-LL	24ff#LL
.	.	24C	24ee-
.	.	24AA-J	24ff#J
.	.	24EE-L	24cccL
.	.	24AA-	24ff#
.	.	24EE-JJ	24cccJJ
.	.	24CCLL	24eee-LL
.	.	24EE-	24ccc
.	.	24CCJ	24eee-J
.	.	24AAA-L	24fff#L
.	.	24CC	24eee-
.	.	24AAA-JJ	24fff#JJ
=238	=238	=238	=238
4D	4Cc	24CCLL	24eee-LL
.	.	24EE-	24ccc
.	.	24CCJ	24eee-J
.	.	24GGGL	24gggL
.	.	24CC	24eee-
.	.	24GGGJJ	24gggJJ
2D	2iiom7b	24CCLL	24dddLL
.	.	24DD	24ccc
.	.	24CCJ	24dddJ
.	.	24FFFL	24aaa-L
.	.	24CC	24ddd
.	.	24FFFJJ	24aaa-JJ
.	.	24CCLL	24dddLL
.	.	24DD	24ccc
.	.	24CCJ	24dddJ
.	.	24FFFL	24aaa-L
.	.	24CC	24ddd
.	.	24FFFJJ	24aaa-JJ
=239	=239	=239	=239
2D	2iiom7b	24CCLL	24dddLL
.	.	24DD	24ccc
.	.	24CCJ	24dddJ
.	.	24FFFL	24aaa-L
.	.	24CC	24ddd
.	.	24FFFJJ	24aaa-JJ
.	.	24CCLL	24dddLL
.	.	24DD	24ccc
.	.	24CCJ	24dddJ
.	.	24AAA-L	24fffL
.	.	24CC	24ddd
.	.	24AAA-JJ	24fffJJ
4D	4V	24BBBLL	24dddLL
.	.	24DD	24bb
.	.	24BBBJ	24dddJ
.	.	24GGGL	24gggL
.	.	24BBB	24ddd
.	.	24GGGJJ	24gggJJ
=240	=240	=240	=240
4T	4i	24CCLL	24eee-LL
.	.	24EE-	24ggg
.	.	24GGJ	24eee-J
.	.	24EE-L	24ggL
.	.	24GG	24ccc
.	.	24CJJ	24ee-JJ
4T	4V7	24GGLL	24ffLL
.	.	24BB	24aa-
.	.	24DJ	24ddJ
.	.	24GGL	24ddL
.	.	24D	24ff
.	.	24FJJ	24bJJ
4T	4i	24CLL	24ccLL
.	.	24E-	24ee-
.	.	24GJ	24gJ
.	.	24CL	24e-L
.	.	24E-	24g
.	.	24GJJ	24cJJ
*-	*-	*-	*-
